X: 1
T: TEETOTAL -- JIG
C: A.Gunn
B: Ryan's Mammoth Collection of Fiddle Tunes
R: jig
M: 9/8
L: 1/8
Z: Contributed 20010706210205 by John Chambers jmchambers:rcn.net
K: Am
 vc>AG GEC DEG | c>AG GEC D2E | c>AG GEC DEG | cAc GEG A2c \
| c>AG GEC DEG | c>AG GEC D2E | c>AG GEC DEG | cAc GEG A2c |]
 vc>eg gea gec | c>eg gec c2e | c>eg gea gec | cBA GEC E2G \
| c>eg gea gec | c>eg gec e2g | agf gfe dcB | cAc GEG A2c |]
